src/assets/navbar/logo.svg

<svg fill="none" height="38" viewBox="0 0 182 38" width="182" xmlns="http://www.w3.org/2000/svg" xmlns:xlink="http://www.w3.org/1999/xlink"><clipPath id="a"><path d="m0 0h182v38h-182z"/></clipPath><g clip-path="url(#a)"><g fill="#040000"><path d="m56.4101 28.6518h9.931c.9894 0 1.3639-.6694 1.3639-1.4106v-2.1183c0-.8798-.5132-1.4106-1.3639-1.4106h-2.1175c-4.7112 0-8.8399-1.4823-8.8399-7.4116 0-6.2831 3.5831-7.41156 8.7382-7.41156h8.3591v4.93946h-10.2732c-.8877 0-1.3639.636-1.3639 1.4106v2.1183c0 .8464.4115 1.4106 1.3639 1.4106h2.1175c4.7113 0 8.84 1.4823 8.84 7.3781 0 6.3166-3.5832 7.4451-8.7383 7.4451h-8.0216v-4.9395z"/><path d="m89.925 23.7123h-7.8829c-.957 0-1.3639.5643-1.3639 1.4106v2.1183c0 .7747.4762 1.4106 1.3639 1.4106h10.6107v4.9395h-8.225c-5.4602 0-9.2144-1.1285-9.2144-7.4116 0-2.2235 0-7.6603 0-9.8837 0-6.2832 3.7542-7.41164 9.2144-7.41164h7.5408v4.93944h-9.9311c-.8553 0-1.3639.636-1.3639 1.4106v2.1183c0 .8464.4115 1.4106 1.3639 1.4106h7.8829v4.949z"/><path d="m109.071 23.7123h-7.883c-.957 0-1.3643.5643-1.3643 1.4106v2.1183c0 .7747.4763 1.4106 1.3643 1.4106h10.61v4.9395h-8.225c-5.4599 0-9.2141-1.1285-9.2141-7.4116 0-2.2235 0-7.6603 0-9.8837 0-6.2832 3.7542-7.41164 9.2141-7.41164h7.541v4.93944h-9.931c-.855 0-1.3639.636-1.3639 1.4106v2.1183c0 .8464.4119 1.4106 1.3639 1.4106h7.883v4.949z"/><path d="m114.193 8.88914h10.579c7.85 0 9.894 4.93946 9.894 12.35106s-2.049 12.3511-9.894 12.3511h-10.579zm12.285 19.76266c1.636 0 2.732-1.095 2.732-2.8212v-9.176c0-1.6927-1.091-2.8212-2.732-2.8212h-6.825v14.8232h6.825z"/><path d="m143.677 8.88914h5.765l8.669 24.70696h-5.765l-1.332-3.811h-8.905l-1.331 3.811h-5.766zm5.599 15.95166-2.696-7.7272-2.728 7.7272z"/><path d="m170.229 8.35838c7.064 0 11.771 5.15462 11.771 12.88182s-4.711 12.8819-11.771 12.8819c-7.065 0-11.776-5.1547-11.776-12.8819s4.711-12.88182 11.776-12.88182zm3.583 20.82422c1.637 0 2.728-1.1285 2.728-2.8212v-10.2376c0-1.6927-1.091-2.8212-2.728-2.8212h-7.166c-1.637 0-2.728 1.1285-2.728 2.8212v10.2376c0 1.6927 1.091 2.8212 2.728 2.8212z"/></g><path d="m53.0948 2.26654c-1.3362-2.457782-5.2984-2.926386-11.4614-1.357996-2.7093.688566-5.7053 1.735746-8.8492 3.079406-4.1194-1.64968-8.6134-1.5684-12.6727.24386-4.101 1.83138-7.2726 5.20247-8.9232 9.49639-.8322 2.1661-1.22518 4.4326-1.1882 6.6944-1.80311 1.511-3.42593 3.0172-4.82219 4.4852-4.443085 4.6813-6.075144 8.4444-4.711242 10.8879 1.363902 2.4434 5.330772 2.8642 11.475232 1.2241 5.0858-1.358 11.1748-3.9975 17.3424-7.4977.4022-.2295.8784-.2678 1.3038-.0956.5687.2295 1.1142.6359 1.7291 1.2384l1.1004 1.3819-.6057-1.6783c-.4808-2.0562-.1895-3.1799 1.2206-4.7148l1.3362-1.138-1.6182.6312c-1.9881.4973-3.0746.196-4.5587-1.2624l-1.1003-1.3819.6056 1.6784c.2543 1.0902.2913 1.9174.0601 2.6873-.1156.3825-.3837.6933-.7258.8846-3.3289 1.8792-6.6254 3.4954-9.7369 4.7817-2.1499-1.5589-3.9207-3.7297-5.0349-6.4075-3.2086-7.6937.2219-16.6211 7.661-19.93958-3.7172 1.65924-5.4325 6.12058-3.8282 9.96978 1.6043 3.8445 5.9179 5.6185 9.6398 3.9592 3.7727-1.6831 8.1649.1674 9.7091 4.1362 1.5304 3.9305-.5039 8.411-4.3136 9.9746-2.8249 1.1571-5.807 1.3436-8.581.6981-.9848.459-1.9557.8942-2.9082 1.3006 1.9742.7986 4.0363 1.2002 6.0983 1.2002 2.247 0 4.4939-.4734 6.6207-1.4249 7.0923-3.1655 10.9944-10.8353 9.9264-18.3904 1.8633-1.5157 3.5369-3.0315 4.9748-4.5139 4.4986-4.62384 6.1722-8.37268 4.8361-10.83046zm-37.0612 31.15746c-1.6089.5977-3.1577 1.0997-4.6187 1.4918-5.7839 1.5445-8.50708.9086-9.12661-.2056-.61954-1.1141.20805-3.8731 4.39222-8.2771 1.05876-1.1141 2.2516-2.2473 3.55999-3.3949.222 1.334.6011 2.6538 1.1328 3.9305 1.0633 2.5438 2.6584 4.7386 4.6603 6.4553zm26.751-18.18c-.1895-.6646-.4161-1.3245-.6889-1.9796-1.0634-2.5439-2.6584-4.74342-4.665-6.46005-2.4365.90852-5.021 2.04178-7.6748 3.37105-.6704.3348-1.2067.9038-1.5072 1.6067-.5502 1.291-.5502 2.6395-.111 4.5139l.8969 2.4769-1.6228-2.037c-2.1868-2.1518-3.7912-2.5965-6.7224-1.8649l-2.3949.9277 1.9696-1.6784c2.0805-2.2617 2.5105-3.921 1.8031-6.95254l-.897-2.48169 1.6228 2.03699c1.2669 1.24802 2.3349 1.91746 3.5832 2.12307.6288.10041 1.2714-.02869 1.8447-.31559 2.4412-1.24324 4.8361-2.33346 7.1293-3.24198-.0046-.00478-.0093-.00478-.0139-.00956 2.4042-.95634 4.6928-1.72141 6.7964-2.25695 5.8024-1.47754 8.5163-.80811 9.1266.3108.6103 1.11892-.2497 3.86838-4.4847 8.22445-1.1743 1.2098-2.5151 2.4483-3.99 3.6867z" fill="#000"/></g></svg>

<svg width="182" height="38" viewBox="0 0 182 38" fill="none" xmlns="http://www.w3.org/2000/svg">
<g clip-path="url(#clip0_24_1884)">
<path d="M56.4101 28.6518H66.3411C67.3305 28.6518 67.705 27.9824 67.705 27.2412V25.1229C67.705 24.2431 67.1918 23.7123 66.3411 23.7123H64.2236C59.5124 23.7123 55.3837 22.23 55.3837 16.3007C55.3837 10.0176 58.9668 8.88914 64.1219 8.88914H72.481V13.8286H62.2078C61.3201 13.8286 60.8439 14.4646 60.8439 15.2392V17.3575C60.8439 18.2039 61.2554 18.7681 62.2078 18.7681H64.3253C69.0366 18.7681 73.1653 20.2504 73.1653 26.1462C73.1653 32.4628 69.5821 33.5913 64.427 33.5913H56.4054V28.6518H56.4101Z" fill="#040000"/>
<path d="M89.925 23.7123H82.0421C81.0851 23.7123 80.6782 24.2766 80.6782 25.1229V27.2412C80.6782 28.0159 81.1544 28.6518 82.0421 28.6518H92.6528V33.5913H84.4278C78.9676 33.5913 75.2134 32.4628 75.2134 26.1797C75.2134 23.9562 75.2134 18.5194 75.2134 16.296C75.2134 10.0128 78.9676 8.88436 84.4278 8.88436H91.9686V13.8238H82.0375C81.1822 13.8238 80.6736 14.4598 80.6736 15.2344V17.3527C80.6736 18.1991 81.0851 18.7633 82.0375 18.7633H89.9204V23.7123H89.925Z" fill="#040000"/>
<path d="M109.071 23.7123H101.188C100.231 23.7123 99.8237 24.2766 99.8237 25.1229V27.2412C99.8237 28.0159 100.3 28.6518 101.188 28.6518H111.798V33.5913H103.573C98.1131 33.5913 94.3589 32.4628 94.3589 26.1797C94.3589 23.9562 94.3589 18.5194 94.3589 16.296C94.3589 10.0128 98.1131 8.88436 103.573 8.88436H111.114V13.8238H101.183C100.328 13.8238 99.8191 14.4598 99.8191 15.2344V17.3527C99.8191 18.1991 100.231 18.7633 101.183 18.7633H109.066V23.7123H109.071Z" fill="#040000"/>
<path d="M114.193 8.88914H124.772C132.622 8.88914 134.666 13.8286 134.666 21.2402C134.666 28.6518 132.617 33.5913 124.772 33.5913H114.193V8.88914ZM126.478 28.6518C128.114 28.6518 129.21 27.5568 129.21 25.8306V16.6546C129.21 14.9619 128.119 13.8334 126.478 13.8334H119.653V28.6566H126.478V28.6518Z" fill="#040000"/>
<path d="M143.677 8.88914H149.442L158.111 33.5961H152.346L151.014 29.7851H142.109L140.778 33.5961H135.012L143.677 8.88914ZM149.276 24.8408L146.58 17.1136L143.852 24.8408H149.276Z" fill="#040000"/>
<path d="M170.229 8.35838C177.293 8.35838 182 13.513 182 21.2402C182 28.9674 177.289 34.1221 170.229 34.1221C163.164 34.1221 158.453 28.9674 158.453 21.2402C158.453 13.513 163.164 8.35838 170.229 8.35838ZM173.812 29.1826C175.449 29.1826 176.54 28.0541 176.54 26.3614V16.1238C176.54 14.4311 175.449 13.3026 173.812 13.3026H166.646C165.009 13.3026 163.918 14.4311 163.918 16.1238V26.3614C163.918 28.0541 165.009 29.1826 166.646 29.1826H173.812Z" fill="#040000"/>
<path d="M53.0948 2.26654C51.7586 -0.191242 47.7964 -0.659846 41.6334 0.908544C38.9241 1.59711 35.9281 2.64429 32.7842 3.98795C28.6648 2.33827 24.1708 2.41955 20.1115 4.23181C16.0105 6.06319 12.8389 9.43428 11.1883 13.7282C10.3561 15.8943 9.96312 18.1608 10.0001 20.4226C8.19699 21.9336 6.57417 23.4398 5.17791 24.9078C0.734825 29.5891 -0.897234 33.3522 0.466668 35.7957C1.83057 38.2391 5.79744 38.6599 11.9419 37.0198C17.0277 35.6618 23.1167 33.0223 29.2843 29.5221C29.6865 29.2926 30.1627 29.2543 30.5881 29.4265C31.1568 29.656 31.7023 30.0624 32.3172 30.6649L33.4176 32.0468L32.8119 30.3685C32.3311 28.3123 32.6224 27.1886 34.0325 25.6537L35.3687 24.5157L33.7505 25.1469C31.7624 25.6442 30.6759 25.3429 29.1918 23.8845L28.0915 22.5026L28.6971 24.181C28.9514 25.2712 28.9884 26.0984 28.7572 26.8683C28.6416 27.2508 28.3735 27.5616 28.0314 27.7529C24.7025 29.6321 21.406 31.2483 18.2945 32.5346C16.1446 30.9757 14.3738 28.8049 13.2596 26.1271C10.051 18.4334 13.4815 9.506 20.9206 6.18752C17.2034 7.84676 15.4881 12.3081 17.0924 16.1573C18.6967 20.0018 23.0103 21.7758 26.7322 20.1165C30.5049 18.4334 34.8971 20.2839 36.4413 24.2527C37.9717 28.1832 35.9374 32.6637 32.1277 34.2273C29.3028 35.3844 26.3207 35.5709 23.5467 34.9254C22.5619 35.3844 21.591 35.8196 20.6385 36.226C22.6127 37.0246 24.6748 37.4262 26.7368 37.4262C28.9838 37.4262 31.2307 36.9528 33.3575 36.0013C40.4498 32.8358 44.3519 25.166 43.2839 17.6109C45.1472 16.0952 46.8208 14.5794 48.2587 13.097C52.7573 8.47316 54.4309 4.72432 53.0948 2.26654ZM16.0336 33.424C14.4247 34.0217 12.8759 34.5237 11.4149 34.9158C5.631 36.4603 2.90782 35.8244 2.28829 34.7102C1.66875 33.5961 2.49634 30.8371 6.68051 26.4331C7.73927 25.319 8.93211 24.1858 10.2405 23.0382C10.4625 24.3722 10.8416 25.692 11.3733 26.9687C12.4366 29.5125 14.0317 31.7073 16.0336 33.424ZM42.7846 15.244C42.5951 14.5794 42.3685 13.9195 42.0957 13.2644C41.0323 10.7205 39.4373 8.52098 37.4307 6.80435C34.9942 7.71287 32.4097 8.84613 29.7559 10.1754C29.0855 10.5102 28.5492 11.0792 28.2487 11.7821C27.6985 13.0731 27.6985 14.4216 28.1377 16.296L29.0346 18.7729L27.4118 16.7359C25.225 14.5841 23.6206 14.1394 20.6894 14.871L18.2945 15.7987L20.2641 14.1203C22.3446 11.8586 22.7746 10.1993 22.0672 7.16776L21.1702 4.68607L22.793 6.72306C24.0599 7.97108 25.1279 8.64052 26.3762 8.84613C27.005 8.94654 27.6476 8.81744 28.2209 8.53054C30.6621 7.2873 33.057 6.19708 35.3502 5.28856C35.3456 5.28378 35.3409 5.28378 35.3363 5.279C37.7405 4.32266 40.0291 3.55759 42.1327 3.02205C47.9351 1.54451 50.649 2.21394 51.2593 3.33285C51.8696 4.45177 51.0096 7.20123 46.7746 11.5573C45.6003 12.7671 44.2595 14.0056 42.7846 15.244Z" fill="black"/>
</g>
<defs>
<clipPath id="clip0_24_1884">
<rect width="182" height="38" fill="white"/>
</clipPath>
</defs>
</svg>
